sprite_icons/menu.svg

<svg xmlns="http://www.w3.org/2000/svg" width="16" height="16" viewBox="0 0 16 16">
  <path fill="#000000" fill-rule="evenodd" d="M1.14285714,2 L14.8571429,2 C15.4883254,2 16,2.44771525 16,3 C16,3.55228475 15.4883254,4 14.8571429,4 L1.14285714,4 C0.511674572,4 0,3.55228475 0,3 C-1.26882631e-16,2.44771525 0.511674572,2 1.14285714,2 Z M1.14285714,7 L14.8571429,7 C15.4883254,7 16,7.44771525 16,8 C16,8.55228475 15.4883254,9 14.8571429,9 L1.14285714,9 C0.511674572,9 0,8.55228475 0,8 C-1.26882631e-16,7.44771525 0.511674572,7 1.14285714,7 Z M1.14285714,12 L14.8571429,12 C15.4883254,12 16,12.4477153 16,13 C16,13.5522847 15.4883254,14 14.8571429,14 L1.14285714,14 C0.511674572,14 0,13.5522847 0,13 C-1.26882631e-16,12.4477153 0.511674572,12 1.14285714,12 Z"/>
</svg>

<svg xmlns="http://www.w3.org/2000/svg" width="16" height="16" viewBox="0 0 16 16"><path fill-rule="evenodd" d="M1.143 2h13.714C15.488 2 16 2.448 16 3s-.512 1-1.143 1H1.143C.512 4 0 3.552 0 3s.512-1 1.143-1zm0 5h13.714C15.488 7 16 7.448 16 8s-.512 1-1.143 1H1.143C.512 9 0 8.552 0 8s.512-1 1.143-1zm0 5h13.714c.631 0 1.143.448 1.143 1s-.512 1-1.143 1H1.143C.512 14 0 13.552 0 13s.512-1 1.143-1z"/></svg>
